X: 23
T: Midnight on the Water
C: Luke Thomasson
M: 3/4
L: 1/8
K: D
                                                       A, DE |\
"D"F4       F2 | "D/C#"F4   FE|"D/B"F2 A3  B |"D/A"AF D2 D<E "^I"|\
   F2 d2 "G"B2 |    "D"A3 D ED| "A7"FB AF ED |"D"D3         :|
|: A Bc |\
 "D"d4-   dd | "D/C#"dc BA Bc | "D/B"d3  B AF |   "D/A"D4  d2 |\
"Em"e4    ef |       e2 d2 e2 |  "Bm"f3  a fe |     dc BA  Bc |
|"G"d4    de |       d2 c2 B2 |   "D"A3  B AG |     FE DA, DE "^I"|\
 F2 d2 "G"B2 |    "D"A3  D ED |  "A7"FB AF ED |[1"D"D3       :|\
                                               [2"D"d3        |]


